icons/Notebook_filled.svg

<svg width="24" height="24" viewBox="0 0 24 24" fill="none" xmlns="http://www.w3.org/2000/svg">
<path fill-rule="evenodd" clip-rule="evenodd" d="M3.25,4.5c0,-1.24264 1.00736,-2.25 2.25,-2.25h2.5h10.5c1.2426,0 2.25,1.00736 2.25,2.25v15c0,1.2426 -1.0074,2.25 -2.25,2.25h-10.5h-2.5c-1.24264,0 -2.25,-1.0074 -2.25,-2.25zM5.5,3.75c-0.41421,0 -0.75,0.33579 -0.75,0.75v15c0,0.4142 0.33579,0.75 0.75,0.75h1.75v-16.5z" fill="#002B51"/>
</svg>

<svg width="24" height="24" viewBox="0 0 24 24" fill="none" xmlns="http://www.w3.org/2000/svg">
<path fill-rule="evenodd" clip-rule="evenodd" d="M3.25 4.5C3.25 3.25736 4.25736 2.25 5.5 2.25H8H18.5C19.7426 2.25 20.75 3.25736 20.75 4.5V19.5C20.75 20.7426 19.7426 21.75 18.5 21.75H8H5.5C4.25736 21.75 3.25 20.7426 3.25 19.5V4.5ZM7.25 3.75V20.25H5.5C5.08579 20.25 4.75 19.9142 4.75 19.5V4.5C4.75 4.08579 5.08579 3.75 5.5 3.75H7.25Z" fill="#002B51"/>
</svg>
